img/advantages_icon-1.svg

<svg width="100" height="100" viewBox="0 0 100 100" fill="none" xmlns="http://www.w3.org/2000/svg">
<g clip-path="url(#clip0_130_4)">
<path d="M90 40C87.689 39.9981 85.4487 40.7967 83.66 42.26L57.79 16.41C58.9217 15.0323 59.6645 13.3772 59.9415 11.616C60.2185 9.85473 60.0196 8.05145 59.3654 6.39294C58.7111 4.73443 57.6254 3.28101 56.2207 2.18316C54.8159 1.08531 53.1431 0.382973 51.3757 0.148923C49.6082 -0.0851279 47.8104 0.157614 46.1683 0.851987C44.5262 1.54636 43.0995 2.66713 42.0362 4.0982C40.9729 5.52927 40.3115 7.21859 40.1205 8.99121C39.9295 10.7638 40.2159 12.5553 40.95 14.18L18.3 24.18L18.17 24.28C16.9726 22.617 15.2931 21.362 13.359 20.6849C11.4249 20.0078 9.32938 19.9413 7.35617 20.4943C5.38297 21.0473 3.6273 22.1932 2.32677 23.7769C1.02624 25.3606 0.24365 27.3055 0.0849029 29.3486C-0.0738446 31.3917 0.398917 33.4342 1.43921 35.1998C2.47951 36.9653 4.0371 38.3687 5.9012 39.2198C7.7653 40.071 9.8459 40.3289 11.8614 39.9587C13.8769 39.5885 15.7301 38.6081 17.17 37.15L24.89 50.21L17.14 63.02C15.3082 61.1732 12.8368 60.101 10.2367 60.0251C7.63661 59.9492 5.1068 60.8754 3.17038 62.6122C1.23397 64.349 0.0390476 66.7635 -0.167279 69.3564C-0.373606 71.9494 0.424439 74.5225 2.06183 76.5437C3.69922 78.5649 6.05073 79.8795 8.63008 80.2157C11.2094 80.5519 13.8194 79.884 15.9202 78.3502C18.021 76.8163 19.452 74.5338 19.9172 71.9745C20.3825 69.4153 19.8465 66.7751 18.42 64.6C18.5277 64.5222 18.6223 64.4277 18.7 64.32L26.04 52.16L43.85 82.28C42.3008 83.5035 41.1483 85.158 40.5378 87.0353C39.9273 88.9126 39.8861 90.9286 40.4193 92.8292C40.9526 94.7299 42.0364 96.4302 43.5343 97.7159C45.0322 99.0017 46.8772 99.8153 48.8367 100.054C50.7962 100.293 52.7827 99.9471 54.5457 99.0591C56.3088 98.1712 57.7696 96.7813 58.7441 95.0646C59.7186 93.3478 60.1632 91.381 60.0219 89.412C59.8806 87.4431 59.1597 85.56 57.95 84C57.95 84 58.02 84 58.04 83.94L83.38 57.53C84.5957 58.5923 86.0504 59.3444 87.62 59.7222C89.1896 60.1 90.8273 60.0922 92.3932 59.6994C93.959 59.3066 95.4065 58.5405 96.612 57.4667C97.8174 56.3928 98.7449 55.0431 99.3153 53.5328C99.8856 52.0225 100.082 50.3966 99.8871 48.7939C99.6925 47.1913 99.1126 45.6597 98.1973 44.3299C97.2819 43.0001 96.0582 41.9117 94.6307 41.1576C93.2032 40.4036 91.6144 40.0064 90 40ZM10 78C8.41777 78 6.87105 77.5308 5.55545 76.6517C4.23986 75.7727 3.21448 74.5233 2.60898 73.0615C2.00348 71.5997 1.84505 69.9911 2.15374 68.4393C2.46242 66.8874 3.22434 65.462 4.34316 64.3431C5.46198 63.2243 6.88744 62.4624 8.43929 62.1537C9.99114 61.8451 11.5997 62.0034 13.0615 62.6089C14.5233 63.2144 15.7727 64.2398 16.6518 65.5554C17.5308 66.871 18 68.4177 18 70C18 72.1217 17.1572 74.1566 15.6569 75.6569C14.1566 77.1572 12.1217 78 10 78ZM82.22 43.63C80.9738 45.1537 80.2051 47.0113 80.01 48.97L59.83 46.49C59.9089 45.987 59.9523 45.4791 59.96 44.97C59.958 42.7762 59.2347 40.6441 57.9016 38.9019C56.5684 37.1598 54.6994 35.9043 52.5824 35.329C50.4655 34.7538 48.2181 34.8906 46.1865 35.7184C44.155 36.5462 42.452 38.019 41.34 39.91L35.18 36.72L45.81 19.14C45.8077 19.1167 45.8077 19.0933 45.81 19.07C47.5069 19.8487 49.3878 20.1368 51.24 19.9018C53.0921 19.6667 54.8415 18.9179 56.29 17.74L82.22 43.63ZM50 53C48.4178 53 46.871 52.5308 45.5555 51.6517C44.2399 50.7727 43.2145 49.5233 42.609 48.0615C42.0035 46.5997 41.8451 44.9911 42.1537 43.4393C42.4624 41.8874 43.2243 40.462 44.3432 39.3431C45.462 38.2243 46.8874 37.4624 48.4393 37.1537C49.9911 36.8451 51.5997 37.0034 53.0615 37.6089C54.5233 38.2144 55.7727 39.2398 56.6518 40.5554C57.5308 41.871 58 43.4177 58 45C57.9957 45.5134 57.9455 46.0255 57.85 46.53C57.734 46.6085 57.6358 46.7105 57.5617 46.8293C57.4877 46.9482 57.4394 47.0813 57.42 47.22C57.403 47.3918 57.4342 47.5649 57.51 47.72C56.9516 49.2645 55.9313 50.5998 54.5877 51.5444C53.2442 52.489 51.6424 52.9972 50 53ZM50 2C51.5823 2 53.129 2.46921 54.4446 3.34826C55.7602 4.22731 56.7856 5.47673 57.3911 6.93853C57.9966 8.40034 58.155 10.0089 57.8463 11.5607C57.5376 13.1126 56.7757 14.538 55.6569 15.6569C54.538 16.7757 53.1126 17.5376 51.5607 17.8462C50.0089 18.1549 48.4003 17.9965 46.9385 17.391C45.4767 16.7855 44.2273 15.7602 43.3483 14.4446C42.4692 13.129 42 11.5822 42 10C42 7.87827 42.8429 5.84343 44.3432 4.34314C45.8434 2.84285 47.8783 2 50 2ZM41.75 15.92L41.88 15.82C42.5096 16.7029 43.2798 17.4765 44.16 18.11L33.46 35.81L20.46 29.09C20.3009 29.0158 20.125 28.9847 19.95 29C19.8386 27.9186 19.555 26.8619 19.11 25.87L41.75 15.92ZM10 38C8.41777 38 6.87105 37.5308 5.55545 36.6517C4.23986 35.7727 3.21448 34.5233 2.60898 33.0615C2.00348 31.5996 1.84505 29.9911 2.15374 28.4393C2.46242 26.8874 3.22434 25.462 4.34316 24.3431C5.46198 23.2243 6.88744 22.4624 8.43929 22.1537C9.99114 21.8451 11.5997 22.0034 13.0615 22.6089C14.5233 23.2144 15.7727 24.2398 16.6518 25.5554C17.5308 26.871 18 28.4177 18 30C18 32.1217 17.1572 34.1566 15.6569 35.6569C14.1566 37.1571 12.1217 38 10 38ZM18.65 35.76C18.584 35.6376 18.4876 35.5343 18.37 35.46C19.2289 34.1475 19.7635 32.6497 19.93 31.09L32.4 37.55L25.98 48.16L18.65 35.76ZM27.14 50.12L34.14 38.47L40.5 41.76C40.0021 43.1922 39.8364 44.7188 40.0154 46.2244C40.1944 47.7301 40.7134 49.1753 41.5333 50.4508C42.3531 51.7263 43.4522 52.7987 44.7475 53.5868C46.0428 54.3749 47.5004 54.8582 49.01 55V80C47.772 80.1281 46.5685 80.484 45.46 81.05L27.14 50.12ZM50 98C48.4178 98 46.871 97.5308 45.5555 96.6517C44.2399 95.7727 43.2145 94.5233 42.609 93.0615C42.0035 91.5997 41.8451 89.9911 42.1537 88.4393C42.4624 86.8874 43.2243 85.462 44.3432 84.3431C45.462 83.2243 46.8874 82.4624 48.4393 82.1537C49.9911 81.8451 51.5997 82.0034 53.0615 82.6089C54.5233 83.2144 55.7727 84.2398 56.6518 85.5554C57.5308 86.871 58 88.4177 58 90C58 92.1217 57.1572 94.1566 55.6569 95.6569C54.1566 97.1572 52.1217 98 50 98ZM56.61 82.51C55.0456 81.1199 53.0824 80.259 51 80.05V55C52.8635 54.813 54.637 54.1064 56.1185 52.9608C57.6001 51.8151 58.7301 50.2765 59.38 48.52L79.88 51.04H80.06C80.2519 52.8594 80.9441 54.5901 82.06 56.04C82.06 56.04 81.99 56.04 81.97 56.1L56.61 82.51ZM90 58C88.4177 58 86.871 57.5308 85.5555 56.6517C84.2399 55.7727 83.2145 54.5233 82.609 53.0615C82.0035 51.5997 81.845 49.9911 82.1537 48.4393C82.4624 46.8874 83.2243 45.462 84.3431 44.3431C85.462 43.2243 86.8875 42.4624 88.4393 42.1537C89.9911 41.8451 91.5997 42.0034 93.0615 42.6089C94.5233 43.2144 95.7727 44.2398 96.6518 45.5554C97.5308 46.871 98 48.4177 98 50C98 52.1217 97.1572 54.1566 95.6569 55.6569C94.1566 57.1571 92.1217 58 90 58Z" fill="url(#paint0_linear_130_4)"/>
</g>
<defs>
<linearGradient id="paint0_linear_130_4" x1="22" y1="11.52" x2="67.99" y2="91.16" gradientUnits="userSpaceOnUse">
<stop stop-color="#26E8D2"/>
<stop offset="1" stop-color="#4E32E7"/>
</linearGradient>
<clipPath id="clip0_130_4">
<rect width="100" height="100" fill="white"/>
</clipPath>
</defs>
</svg>

<svg width="100" height="100" fill="none" xmlns="http://www.w3.org/2000/svg"><g clip-path="url(#clip0_130_4)"><path d="M90 40a10 10 0 00-6.34 2.26L57.79 16.41a10 10 0 10-16.84-2.23l-22.65 10-.13.1a10 10 0 10-1 12.87l7.72 13.06-7.75 12.81a10.14 10.14 0 101.28 1.58 1.24 1.24 0 00.28-.28l7.34-12.16 17.81 30.12A10 10 0 1057.95 84s.07 0 .09-.06l25.34-26.41A10 10 0 1090 40zM10 78a8 8 0 110-16 8 8 0 010 16zm72.22-34.37a10 10 0 00-2.21 5.34l-20.18-2.48c.079-.503.122-1.01.13-1.52a10 10 0 00-18.62-5.06l-6.16-3.19 10.63-17.58a.356.356 0 010-.07 10 10 0 0010.48-1.33l25.93 25.89zM50 53a8 8 0 118-8 8.614 8.614 0 01-.15 1.53 1.001 1.001 0 00-.43.69.93.93 0 00.09.5A8 8 0 0150 53zm0-51a8 8 0 110 16 8 8 0 010-16zm-8.25 13.92l.13-.1c.63.883 1.4 1.657 2.28 2.29l-10.7 17.7-13-6.72a1 1 0 00-.51-.09 10.2 10.2 0 00-.84-3.13l22.64-9.95zM10 38a8 8 0 110-16 8 8 0 010 16zm8.65-2.24a.809.809 0 00-.28-.3 9.9 9.9 0 001.56-4.37l12.47 6.46-6.42 10.61-7.33-12.4zm8.49 14.36l7-11.65 6.36 3.29A10 10 0 0049.01 55v25a10.09 10.09 0 00-3.55 1.05L27.14 50.12zM50 98a8 8 0 110-15.999A8 8 0 0150 98zm6.61-15.49A9.94 9.94 0 0051 80.05V55a10 10 0 008.38-6.48l20.5 2.52h.18a9.9 9.9 0 002 5s-.07 0-.09.06L56.61 82.51zM90 58a8 8 0 110-15.998A8 8 0 0190 58z" fill="url(#paint0_linear_130_4)"/></g><defs><linearGradient id="paint0_linear_130_4" x1="22" y1="11.52" x2="67.99" y2="91.16" gradientUnits="userSpaceOnUse"><stop stop-color="#26E8D2"/><stop offset="1" stop-color="#4E32E7"/></linearGradient><clipPath id="clip0_130_4"><path fill="#fff" d="M0 0h100v100H0z"/></clipPath></defs></svg>
